X:214
U: ~ = !turn!
%%topmargin 3cm
T:The Wandering Minstrel
B:Traditional Irish Fiddle Tunes. Randy Miller and Jack Perron.
Z:Transcribed by Ralph Palmer
R:Jig
L:1/8
M:6/8
K:D
[D2d2] B |: ADD BAF | Ade fdB | ADD BAF | FAF GFE |
ADD BAF | Ade fdB | AdB AFE | [1 FDD D2 B :|] [2 FDD D2 g |]
|: faf ede | fdB AFA "(A"| JBdB AFF | GEE E2 g "A)"|
faf ede | fdB AFA | JBdB AFE | FDD D2 g ::
fdf agf | gbe gbe | fdf afd | ceA ceA |
fdf agf | g{/b}ge g{/b}ge | ~f3 ede | fdd d2 z :|]
xxxx "(A"|| ~B3 AFA | AGF E2 z "A)"|| xxxx xxxx[|] xxxx [|]
